packages/core/src/svgs/tokens/mono/MIND.svg

<svg width="24" height="24" viewBox="0 0 24 24" fill="none" xmlns="http://www.w3.org/2000/svg">
<path fill-rule="evenodd" clip-rule="evenodd" d="M11.0938 2.06444C11.2879 2.17032 11.4115 2.37622 11.4115 2.60566V7.75894C11.4115 7.9472 11.3233 8.12955 11.1762 8.24132L9.48785 9.54726C10.2821 10.1003 11.4115 10.8827 11.4115 12.0004C11.4115 13.1828 10.382 14.0182 9.45848 14.5358L11.1586 15.7419C11.3174 15.8595 11.4115 16.0419 11.4115 16.2419V21.3952C11.4115 21.6187 11.2938 21.8246 11.0997 21.9305C11.0054 21.9815 10.8988 22.0052 10.7917 21.999C10.6847 21.9929 10.5816 21.9569 10.4939 21.8951L4.02279 17.3537C3.59148 17.0627 3.23609 16.6726 2.98637 16.2162C2.73665 15.7597 2.59984 15.2502 2.5874 14.7299C2.5874 13.9829 2.91684 13.0828 4.01691 12.0239C3.17568 11.3063 2.5874 10.4356 2.5874 9.27081C2.5874 7.8766 4.20516 6.6824 5.19933 6.04117L10.4762 2.11738C10.6527 1.98208 10.8938 1.96443 11.0938 2.06444ZM5.08168 7.61187C4.65224 7.96483 3.76395 8.62959 3.76395 9.27081C3.76395 10.1649 4.30517 10.718 4.94049 11.2415L6.70533 10.0826L7.88187 10.7885L5.9288 11.9945L8.3525 13.7416C8.99959 13.4652 10.235 12.8593 10.235 12.0004C10.235 11.0886 8.78782 10.5239 8.1466 10.0826C7.12888 9.37664 5.74055 8.71782 5.08756 7.61187H5.08168ZM4.96403 12.771C3.89337 13.7475 3.76395 14.4005 3.76395 14.7299C3.76395 15.1594 3.98161 15.8654 4.67578 16.3477H4.68165L5.18169 16.7008C5.34139 16.2651 5.59177 15.8683 5.91631 15.5366C6.24083 15.205 6.63208 14.9461 7.06418 14.777L7.93482 15.6359C7.22889 15.9537 6.49943 16.5948 6.36413 16.9008C6.26999 17.1183 6.24647 17.3126 6.25823 17.4537L10.235 20.248V16.5595C8.47192 15.3052 6.71491 14.0424 4.96403 12.771ZM6.04646 6.90594C6.44647 7.76483 7.71127 8.32957 8.45249 8.83549L10.235 7.45304V3.79397L6.04646 6.91183V6.90594ZM12.8998 2.07033C12.9929 2.01959 13.0982 1.9955 13.204 2.00069C13.3098 2.00588 13.4122 2.04016 13.4999 2.09973L19.6768 6.34708C20.7063 7.04713 21.4123 7.95896 21.4123 9.27081C21.4123 10.3474 20.7357 11.2533 20.0004 11.9534C20.6474 12.4828 21.4123 13.3653 21.4123 14.7299C21.4123 16.436 20.171 17.2537 19.3533 17.789L19.0885 17.9596C18.6414 18.2714 15.1765 20.7009 13.5116 21.8951C13.3352 22.0187 13.0998 22.0364 12.9057 21.9305C12.8094 21.8784 12.7288 21.801 12.6729 21.7067C12.6169 21.6125 12.5877 21.5048 12.5881 21.3952V16.2419C12.5881 16.0536 12.6764 15.8713 12.8234 15.7594L14.4764 14.4829C13.5587 13.9123 12.5881 13.2593 12.5881 12.0004C12.5881 10.8945 13.7234 10.0355 14.4999 9.45323L12.8411 8.25309C12.6823 8.13544 12.5881 7.95896 12.5881 7.75894V2.60566C12.5881 2.38211 12.7057 2.17621 12.8998 2.0762V2.07033ZM15.5236 10.1886C15.0707 10.518 13.7646 11.2945 13.7646 12.0004C13.7646 12.9769 15.2 13.5182 15.8295 13.9064L15.8531 13.9182C16.959 14.6771 18.3414 15.3242 19.065 16.5243C19.7474 16.0477 20.2356 15.6006 20.2356 14.7299C20.2356 13.7712 19.6298 13.1651 19.0708 12.7476L17.2943 14.1241L16.1177 13.5182L18.059 12.018L15.5294 10.1945L15.5236 10.1886ZM19.0239 11.2356L13.7646 7.44127V3.73513L17.559 6.34119C18.1767 6.76476 16.3589 8.16486 16.1177 8.36486L17.2943 8.97079C17.9532 8.42369 18.4474 8.05308 18.7473 7.1589L19.0296 7.35303C19.718 7.82366 20.2356 8.37075 20.2356 9.27081C20.2356 10.0709 19.565 10.7415 19.0239 11.2356ZM18.0825 17.1949C17.5531 16.2536 16.3942 15.7478 15.553 15.1653L13.7646 16.5477V20.2363L18.0884 17.1949H18.0825Z" fill="white"/>
</svg>

<svg xmlns="http://www.w3.org/2000/svg" width="24" height="24" fill="none" viewBox="0 0 24 24">
    <path fill="#fff" fill-rule="evenodd" d="M11.094 2.064a.61.61 0 0 1 .318.542v5.153a.61.61 0 0 1-.236.482L9.488 9.547c.794.553 1.924 1.336 1.924 2.453 0 1.183-1.03 2.018-1.954 2.536l1.7 1.206c.16.117.254.3.254.5v5.153c0 .224-.118.43-.312.535a.58.58 0 0 1-.606-.035l-6.471-4.541a3.26 3.26 0 0 1-1.436-2.624c0-.747.33-1.647 1.43-2.706-.841-.718-1.43-1.588-1.43-2.753 0-1.394 1.618-2.589 2.612-3.23l5.277-3.924a.59.59 0 0 1 .618-.053M5.082 7.612c-.43.353-1.318 1.018-1.318 1.659 0 .894.541 1.447 1.176 1.97l1.765-1.158 1.177.706-1.953 1.206 2.423 1.747c.648-.277 1.883-.883 1.883-1.742 0-.911-1.447-1.476-2.088-1.917-1.018-.706-2.406-1.365-3.06-2.471zm-.118 5.159c-1.07.976-1.2 1.63-1.2 1.959 0 .43.218 1.135.912 1.618h.006l.5.353a3.28 3.28 0 0 1 1.882-1.924l.87.859c-.705.318-1.435.959-1.57 1.265a1.2 1.2 0 0 0-.106.553l3.977 2.794v-3.689a669 669 0 0 1-5.271-3.788m1.082-5.865c.4.859 1.665 1.424 2.406 1.93l1.783-1.383V3.794L6.046 6.912zM12.9 2.07a.58.58 0 0 1 .6.03l6.177 4.247c1.03.7 1.735 1.612 1.735 2.924 0 1.076-.676 1.982-1.412 2.682.647.53 1.412 1.412 1.412 2.777 0 1.706-1.241 2.524-2.059 3.059l-.265.17c-.447.312-3.911 2.742-5.576 3.936a.58.58 0 0 1-.606.035.61.61 0 0 1-.318-.535v-5.153c0-.188.088-.37.235-.483l1.653-1.276c-.917-.57-1.888-1.224-1.888-2.483 0-1.105 1.135-1.964 1.912-2.547l-1.659-1.2a.61.61 0 0 1-.253-.494V2.606a.59.59 0 0 1 .312-.53zm2.624 8.119c-.453.329-1.76 1.105-1.76 1.811 0 .977 1.436 1.518 2.066 1.906l.023.012c1.106.76 2.488 1.406 3.212 2.606.682-.476 1.17-.923 1.17-1.794 0-.959-.605-1.565-1.164-1.982l-1.777 1.376-1.176-.606 1.941-1.5-2.53-1.824zm3.5 1.047-5.26-3.795V3.735l3.795 2.606c.618.424-1.2 1.824-1.441 2.024l1.176.606c.66-.547 1.153-.918 1.453-1.812l.283.194c.688.47 1.206 1.018 1.206 1.918 0 .8-.671 1.47-1.212 1.965m-.942 5.959c-.529-.941-1.688-1.447-2.529-2.03l-1.788 1.383v3.688l4.323-3.041z" clip-rule="evenodd"/>
</svg>
